app/component-library/components/Icons/Icon/assets/apple.svg

<svg viewBox="0 0 24 24" xmlns="http://www.w3.org/2000/svg"><g><path d="m14.9345 5.20388c.6891-.86299 1.1567-2.02174 1.0333-3.20583-1.0087.05022-2.2396.66633-2.9522 1.53-.6399.7396-1.2062 1.94686-1.0586 3.08133 1.1323.09834 2.2636-.56672 2.9775-1.4055z"/><path d="m15.955 6.83084c-1.6444-.09808-3.0425.93448-3.8278.93448-.7857 0-1.9883-.88506-3.28887-.86121-1.69284.0249-3.2636.98329-4.12265 2.50759-1.76691 3.0493-.46628 7.5726 1.25194 10.0561.83441 1.2287 1.84001 2.5815 3.16505 2.5329 1.25193-.0492 1.74263-.8117 3.26443-.8117 1.5207 0 1.9627.8117 3.288.7871 1.3743-.0246 2.2335-1.2292 3.0679-2.4591.9572-1.4006 1.349-2.7531 1.3737-2.8273-.0247-.0246-2.6501-1.0331-2.6744-4.0571-.0248-2.532 2.0612-3.73639 2.1594-3.81108-1.178-1.74455-3.0186-1.94126-3.6567-1.99068z"/></g></svg>

<svg viewBox="0 0 24 24" xmlns="http://www.w3.org/2000/svg">
  <path
    d="M14.9346 5.20382C15.6237 4.34083 16.0913 3.18209 15.968 1.99799C14.9593 2.04821 13.7283 2.66432 13.0157 3.52799C12.3758 4.26759 11.8095 5.47485 11.9571 6.60932C13.0894 6.70766 14.2207 6.0426 14.9346 5.20382Z" />
  <path
    d="M15.9551 6.83079C14.3107 6.73271 12.9126 7.76527 12.1273 7.76527C11.3416 7.76527 10.1391 6.88021 8.83845 6.90407C7.14561 6.92896 5.57485 7.88735 4.7158 9.41165C2.9489 12.461 4.24952 16.9842 5.96774 19.4677C6.80215 20.6964 7.80776 22.0493 9.13279 22.0007C10.3847 21.9515 10.8754 21.189 12.3972 21.189C13.9179 21.189 14.3599 22.0007 15.6852 21.9761C17.0595 21.9515 17.9187 20.7468 18.7531 19.5169C19.7103 18.1163 20.1022 16.7639 20.1268 16.6896C20.1022 16.6651 17.4767 15.6566 17.4524 12.6326C17.4276 10.1005 19.5136 8.89616 19.6118 8.82147C18.4338 7.07692 16.5932 6.88021 15.9551 6.83079Z" />
</svg>
